X:1
T:Siobh\'an's
C:Marcus Turner
O:New Zealand
S:Modified July 2006
M:4/4
L:1/8
Q:1/4=180
R:Reel
K:G
V:1
(3DEF|:"G"G2 BG dGBG|(3GGG Bd "Am"cBAG|"D"FGAF D2 FG|"Am"AFDc "D"BAFA|
"G"G2 BG dGBG|(3GGG Bd "Am"cBAG|"D"FGFE DEDC|[1 B,DBA "G"G2 (3DEF:|[2 B,DBA "G"G2 (3DEF|
|:"G"GABG "D"AB (3cBA|"Em"dg (3gfg "Bm"edcB|"Am"cded "Am/B"cBAG|"C"(3FGF (3EFE "D"DE (3FED|
"G"GABG "D"AB (3cBA|"Em"dg (3gfg "Bm"edcB|"Am"cded "C"cBAG|[1 "D"DFBA "G"G2 (3DEF:|[2 "D"DFBA "G"G2||